icon/pk/desk-lamp-one.svg

<svg viewBox="0 0 48 48" fill="none" xmlns="http://www.w3.org/2000/svg" height="1em" width="1em">
  <path d="M6 40.9989H42" stroke="black" stroke-width="4" stroke-linecap="round" stroke-linejoin="round"/>
  <path d="M39 18.999L39 40.999" stroke="black" stroke-width="4" stroke-linecap="round" stroke-linejoin="round"/>
  <path d="M27 13.999L39 23.999" stroke="black" stroke-width="4" stroke-linecap="round" stroke-linejoin="round"/>
  <path d="M26.3399 14.5773C26.5526 14.3398 26.7433 14.0744 26.9065 13.7825C28.0894 11.6675 27.3562 8.8005 25.3075 7.57941C23.2587 6.35832 20.4884 7.13826 19.3038 9.25217C19.1168 9.58576 19.0131 9.84723 18.9203 10.1561C15.3443 9.88004 11.913 11.6307 10 15.0512L26.6935 25C28.6065 21.5794 28.3595 17.6363 26.3399 14.5773Z" fill="#2F88FF" stroke="black" stroke-width="4" stroke-linejoin="round"/>
</svg>

<svg width="48" height="48" fill="none" xmlns="http://www.w3.org/2000/svg"><path d="M6 40.999h36M39 18.999v22M27 13.999l12 10" stroke="#000" stroke-width="4" stroke-linecap="round" stroke-linejoin="round"/><path d="M26.34 14.577a4.43 4.43 0 0 0 .567-.794c1.182-2.115.45-4.982-1.6-6.204-2.048-1.22-4.819-.44-6.003 1.673-.187.334-.29.595-.384.904-3.576-.276-7.007 1.475-8.92 4.895L26.694 25c1.913-3.42 1.666-7.364-.354-10.423Z" fill="#2F88FF" stroke="#000" stroke-width="4" stroke-linejoin="round"/></svg>
